contents/ui/assets/default_album_art.svg

<?xml version="1.0" encoding="UTF-8"?>
<svg width="450" height="450" fill="none" version="1.1" viewBox="0 0 450 450" xmlns="http://www.w3.org/2000/svg">
 <rect width="450" height="450" fill="url(#paint0_linear_1_6)"/>
 <path d="m293.39 123.17c0.907 0.685 1.643 1.571 2.149 2.589s0.77 2.139 0.769 3.276v137.6c-1e-3 6.382-2.082 12.591-5.926 17.686s-9.244 8.8-15.381 10.553l-12.925 3.691c-3.171 0.952-6.499 1.264-9.791 0.919-3.293-0.345-6.484-1.34-9.389-2.929-2.905-1.588-5.465-3.738-7.532-6.324-2.067-2.585-3.6-5.556-4.51-8.739s-1.178-6.516-0.789-9.803c0.388-3.288 1.426-6.466 3.052-9.349 1.627-2.884 3.81-5.415 6.423-7.448s5.604-3.526 8.798-4.394l22.629-6.463c3.069-0.876 5.768-2.728 7.69-5.276 1.923-2.548 2.963-5.652 2.963-8.843v-54.432l-88.125 25.184v95.342c-1e-3 6.382-2.081 12.591-5.925 17.686-3.845 5.095-9.244 8.8-15.381 10.553l-12.925 3.691c-3.175 0.965-6.51 1.288-9.811 0.95-3.301-0.337-6.502-1.329-9.415-2.916-2.914-1.587-5.483-3.739-7.557-6.329-2.073-2.59-3.611-5.568-4.522-8.758-0.911-3.191-1.178-6.531-0.785-9.826 0.393-3.294 1.438-6.478 3.074-9.365 1.636-2.886 3.83-5.419 6.455-7.449s5.627-3.517 8.833-4.374l22.619-6.463c3.068-0.876 5.768-2.728 7.69-5.276s2.962-5.652 2.963-8.843v-100.88c0-1.595 0.52-3.148 1.481-4.421 0.961-1.274 2.311-2.2 3.846-2.639l102.81-29.375c1.093-0.313 2.244-0.368 3.362-0.161 1.118 0.208 2.173 0.672 3.081 1.356z" clip-rule="evenodd" fill="#353535" fill-rule="evenodd"/>
 <defs>
  <linearGradient id="paint0_linear_1_6" x1="225" x2="225" y2="450" gradientUnits="userSpaceOnUse">
   <stop stop-color="#161616" offset="0"/>
   <stop stop-color="#222" offset="1"/>
  </linearGradient>
 </defs>
</svg>

<svg width="450" height="450" viewBox="0 0 450 450" fill="none" xmlns="http://www.w3.org/2000/svg">
<rect width="450" height="450" fill="url(#paint0_linear_1_6)"/>
<path fill-rule="evenodd" clip-rule="evenodd" d="M293.392 123.166C294.299 123.851 295.035 124.737 295.541 125.755C296.047 126.773 296.311 127.894 296.31 129.031V266.634C296.309 273.016 294.228 279.225 290.384 284.32C286.54 289.415 281.14 293.12 275.003 294.873L262.078 298.564C258.907 299.516 255.579 299.828 252.287 299.483C248.994 299.138 245.803 298.143 242.898 296.554C239.993 294.966 237.433 292.816 235.366 290.23C233.299 287.645 231.766 284.674 230.856 281.491C229.946 278.308 229.678 274.975 230.067 271.688C230.455 268.4 231.493 265.222 233.119 262.339C234.746 259.455 236.929 256.924 239.542 254.891C242.155 252.858 245.146 251.365 248.34 250.497L270.969 244.034C274.038 243.158 276.737 241.306 278.659 238.758C280.582 236.21 281.622 233.106 281.622 229.915V175.483L193.497 200.667V296.009C193.496 302.391 191.416 308.6 187.572 313.695C183.727 318.79 178.328 322.495 172.191 324.248L159.266 327.939C156.091 328.904 152.756 329.227 149.455 328.889C146.154 328.552 142.953 327.56 140.04 325.973C137.126 324.386 134.557 322.234 132.483 319.644C130.41 317.054 128.872 314.076 127.961 310.886C127.05 307.695 126.783 304.355 127.176 301.06C127.569 297.766 128.614 294.582 130.25 291.695C131.886 288.809 134.08 286.276 136.705 284.246C139.33 282.216 142.332 280.729 145.538 279.872L168.157 273.409C171.225 272.533 173.925 270.681 175.847 268.133C177.769 265.585 178.809 262.481 178.81 259.29V158.406C178.81 156.811 179.33 155.258 180.291 153.985C181.252 152.711 182.602 151.785 184.137 151.346L286.949 121.971C288.042 121.658 289.193 121.603 290.311 121.81C291.429 122.018 292.484 122.482 293.392 123.166Z" fill="#353535"/>
<defs>
<linearGradient id="paint0_linear_1_6" x1="225" y1="0" x2="225" y2="450" gradientUnits="userSpaceOnUse">
<stop stop-color="#161616"/>
<stop offset="1" stop-color="#222222"/>
</linearGradient>
</defs>
</svg>
